X:1
L:1/8
Q:1/4=120
M:6/8
K:A
|:""^Lively."" A3 .c2 z | BAB c<AF | E>FG A2 f | e>dc{c} B2 A | A3 .c2 z |{c} BAB c<AF | E>FG A2 f | 
 e>dc{c} B2 A |] c>de ef=g | fdf ecA | c>de ef=g | f^ge !fermata!a2 z | A>ce agf | 
{f} e(e/d/)(d/c/) (cB)A | AEA AEA | Adc (cB)A |: A2 .c2 z |{c} BAB c<AF | E>FA A2 f | 
{f} e<dc{c} B2 A :|
